X:68
T:Tunbridge Rout
M:C|
L:1/8
B:Thompson's Compleat Collection of 200 Favourite Country Dances, vol. 1 (London, 1757)
Z:Transcribed and edited by Fynnian Titford-Mock, 2007
Z:abc's:AK/Fiddler's Companion
K:A
a2 gf ecAe|eBAG AECA,|agaf ec (AB/c/)|dBAG A2 A,2:|
|:e(c c)d/e/ fd f2|d(B B)c/d/ ec e2|cA AB/c/ d/c/B/A/ Gf|edcB A2 A,2:|

